src/assets/big-star.svg

<?xml version="1.0" encoding="UTF-8" standalone="no"?>
<!-- Created with Inkscape (http://www.inkscape.org/) -->

<svg
   version="1.1"
   id="Capa_1"
   x="0px"
   y="0px"
   viewBox="0 0 50 50"
   xml:space="preserve"
   width="50"
   height="50"
   xmlns="http://www.w3.org/2000/svg"
>

    <defs
   id="defs7541" />

<g
   id="g7508">
</g>
<g
   id="g7510">
</g>
<g
   id="g7512">
</g>
<g
   id="g7514">
</g>
<g
   id="g7516">
</g>
<g
   id="g7518">
</g>
<g
   id="g7520">
</g>
<g
   id="g7522">
</g>
<g
   id="g7524">
</g>
<g
   id="g7526">
</g>
<g
   id="g7528">
</g>
<g
   id="g7530">
</g>
<g
   id="g7532">
</g>
<g
   id="g7534">
</g>
<g
   id="g7536">
</g>
<path
   style="fill:none;fill-rule:evenodd;stroke:#000000;paint-order:markers fill stroke"
   id="path932"
   d="M 20.048187,19.912218 12.783583,16.620955 11.041914,24.403852 8.2323364,16.939727 1.4974514,21.21152 4.7887137,13.946916 -2.9941832,12.205247 4.469942,9.3956694 0.1981486,2.6607844 7.4627534,5.9520467 9.2044222,-1.8308503 12.014,5.6332749 l 6.734885,-4.2717934 -3.291263,7.2646048 7.782897,1.7416687 -7.464125,2.809577 z"
   transform="matrix(1.7694976,-0.47420507,0.47413545,1.7697574,1.410928,9.9524726)" /></svg>

<svg xml:space="preserve" width="50" height="50" xmlns="http://www.w3.org/2000/svg">
  <path style="fill:none;fill-rule:evenodd;stroke:#000;paint-order:markers fill stroke" d="m20.048 19.912-7.264-3.291-1.742 7.783-2.81-7.464-6.735 4.272 3.292-7.265-7.783-1.742 7.464-2.81L.198 2.662l7.265 3.291L9.204-1.83l2.81 7.464 6.735-4.272-3.291 7.265 7.783 1.742-7.465 2.81z" transform="matrix(1.7695 -.4742 .47414 1.76976 1.41 9.952)"/>
</svg>
